X:1
T:Title
%%score ( 1 2 ) { 3 | 4 }
L:1/8
Q:1/4=105
M:4/4
K:Ab
V:1 treble nm="Grand Piano, Staff"
V:2 treble 
V:3 bass nm="Choir Pad, St. Luke, LM"
V:4 bass 
V:1
 [CF]2 [B,E]2 [B,D]2 [A,C]2 | [CA]2 [CG]2 F-[B,F] [C=E]2 | [Cc]2 [Ec]2 [EB]2 [CA]2 | %3
w: By~Jeremiah~Clarke,~1701 * * *|||
 [FB]2 [EA]2 G-[DG] [CA]2 | [Ec]2 [Ee]2 [Ed]2 [Ec]2 | [Ac]2 [FB]2 [FA]2 [EG]2 | %6
w: |||
 [EG]2 [EA]2 [DF]2 [Ec]2 | [GB]2 [FA]2 [=EG]2 [CF]2- | [CF]6 z2 |] %9
w: |||
V:2
 x8 | z4 .A,2 z2 | x8 | z4 .E2 z2 | x8 | x8 | x8 | x8 | x8 |] %9
V:3
 A,2 G,2 E,2 E,2 | F,2 E,2 F,2 G,2 | A,2 A,2 G,2 A,2 | D2 C2 B,2 A,2 | A,2 B,2 G,2 A,2 | %5
 E2 D2 DC B,2 | B,2 A,2 A,2 A,2 | D2 C2 CB, A,2- | A,6 z2 |] %9
V:4
 F,,2 G,,2 G,,2 A,,2 | F,,2 C,2 D,2 C,2 | A,,2 C,2 E,2 F,2 | D,2 E,2 E,2 A,,2 | z2 G,2 E,2 z2 | %5
 C,2 D,2 B,,2 E,2 | D,2 C,2 D,2 A,,2 | B,,2 C,2 C,2 F,2- | F,6 z2 |] %9

